src/assets/icons/settings-icon.svg

<svg width="24" height="24" viewBox="0 0 24 24" fill="none" xmlns="http://www.w3.org/2000/svg">
<path fill-rule="evenodd" clip-rule="evenodd" d="M2.68082 9.19199C2.08082 9.46799 0.566423 10.3728 0.374424 10.4952C0.259017 10.5668 0.163966 10.6669 0.0983998 10.7858C0.0328338 10.9048 -0.00104312 11.0386 2.44737e-05 11.1744V12.8256C-0.000816141 12.9634 0.0341239 13.0992 0.101431 13.2195C0.168737 13.3398 0.266107 13.4406 0.384023 13.512C0.638423 13.6728 2.11442 14.5536 2.69042 14.8152L3.43442 16.6152C3.19442 17.2488 2.76482 18.948 2.71442 19.1688C2.68416 19.3009 2.68811 19.4386 2.72591 19.5688C2.76371 19.699 2.8341 19.8174 2.93042 19.9128L4.09682 21.0792C4.19247 21.1751 4.31088 21.2453 4.44099 21.283C4.5711 21.3208 4.70866 21.325 4.84082 21.2952L4.87114 21.2874C5.23189 21.1951 6.81736 20.7893 7.39442 20.5752L9.19441 21.3192C9.47041 21.9192 10.3752 23.4336 10.4976 23.6256C10.5701 23.7402 10.6703 23.8346 10.7891 23.9001C10.9078 23.9656 11.0412 23.9999 11.1768 24H12.8256C12.9635 24.0008 13.0992 23.9659 13.2195 23.8986C13.3398 23.8313 13.4406 23.7339 13.512 23.616C13.6728 23.3616 14.5536 21.8856 14.8152 21.3096L16.6152 20.5656C17.2488 20.8056 18.948 21.2352 19.1688 21.2856C19.3009 21.3158 19.4386 21.3119 19.5688 21.2741C19.699 21.2363 19.8174 21.1659 19.9128 21.0696L21.0792 19.9032C21.1751 19.8075 21.2453 19.6891 21.283 19.559C21.3208 19.4289 21.325 19.2913 21.2952 19.1592L21.2874 19.1289C21.1951 18.7681 20.7893 17.1827 20.5752 16.6056L21.3192 14.8056C21.9192 14.5296 23.4336 13.6248 23.6256 13.5024C23.7402 13.4299 23.8346 13.3297 23.9001 13.2109C23.9656 13.0922 23.9999 12.9588 24 12.8232V11.1744C23.9998 11.038 23.9647 10.9039 23.8979 10.785C23.8311 10.6661 23.7348 10.5663 23.6184 10.4952C23.364 10.3344 21.888 9.45359 21.312 9.19199L20.568 7.39199C20.808 6.7584 21.2376 5.0592 21.288 4.8384C21.3183 4.70625 21.3143 4.56857 21.2765 4.43838C21.2387 4.30819 21.1683 4.18979 21.072 4.0944L19.9056 2.9208C19.8099 2.82486 19.6915 2.75472 19.5614 2.71695C19.4313 2.67918 19.2938 2.675 19.1616 2.7048L19.1313 2.71255C18.7707 2.80487 17.1851 3.21072 16.608 3.4248L14.808 2.6808C14.532 2.0808 13.6272 0.5664 13.5048 0.3744C13.4324 0.259782 13.3321 0.16535 13.2133 0.0998903C13.0946 0.0344302 12.9612 6.79292e-05 12.8256 0H11.1744C11.038 0.000149492 10.9039 0.0353158 10.785 0.102131C10.6661 0.168947 10.5663 0.265175 10.4952 0.3816C10.3344 0.636 9.45361 2.112 9.19201 2.688L7.39202 3.432C6.75842 3.192 5.05922 2.7624 4.83842 2.712C4.70627 2.68174 4.56859 2.68569 4.4384 2.72349C4.30821 2.76129 4.18981 2.83168 4.09442 2.928L2.92082 4.0944C2.82488 4.19005 2.75475 4.30846 2.71697 4.43857C2.6792 4.56868 2.67502 4.70624 2.70482 4.8384C2.70709 4.84724 2.70968 4.85737 2.71258 4.8687C2.80491 5.22942 3.21075 6.81493 3.42482 7.39199L2.68082 9.19199ZM12 17C14.7614 17 17 14.7614 17 12C17 9.23858 14.7614 7 12 7C9.23858 7 7 9.23858 7 12C7 14.7614 9.23858 17 12 17Z" fill="#32324D"/>
</svg>

<svg width="24" height="24" fill="none" xmlns="http://www.w3.org/2000/svg"><path fill-rule="evenodd" clip-rule="evenodd" d="M2.68 9.192c-.6.276-2.114 1.18-2.306 1.303a.792.792 0 00-.374.68v1.65a.797.797 0 00.384.687c.254.16 1.73 1.042 2.306 1.303l.744 1.8c-.24.634-.67 2.333-.72 2.554a.797.797 0 00.216.744l1.167 1.166a.801.801 0 00.744.216l.03-.008c.36-.092 1.946-.498 2.523-.712l1.8.744c.276.6 1.181 2.115 1.304 2.307a.805.805 0 00.679.374h1.649a.797.797 0 00.686-.384c.16-.254 1.042-1.73 1.303-2.306l1.8-.744c.634.24 2.333.67 2.554.72a.797.797 0 00.744-.216l1.166-1.167a.802.802 0 00.216-.744l-.008-.03c-.092-.36-.498-1.946-.712-2.523l.744-1.8c.6-.276 2.115-1.181 2.307-1.304a.805.805 0 00.374-.679v-1.649a.797.797 0 00-.382-.679c-.254-.16-1.73-1.041-2.306-1.303l-.744-1.8c.24-.634.67-2.333.72-2.554a.796.796 0 00-.216-.744l-1.166-1.173a.802.802 0 00-.744-.216l-.03.008c-.361.092-1.947.498-2.524.712l-1.8-.744c-.276-.6-1.18-2.115-1.303-2.307a.803.803 0 00-.68-.374h-1.65a.797.797 0 00-.68.382c-.16.254-1.041 1.73-1.303 2.306l-1.8.744c-.634-.24-2.333-.67-2.554-.72a.797.797 0 00-.744.216L2.921 4.094a.802.802 0 00-.216.744l.008.03c.092.361.498 1.947.712 2.524l-.744 1.8zM12 17a5 5 0 100-10 5 5 0 000 10z" fill="#32324D"/></svg>
